images/keyTango.svg

<svg height="250" viewBox="0 0 250 250" width="250" xmlns="http://www.w3.org/2000/svg"><path d="m20.148438 58.613281-5.148438 13.457031v27.660157c0 15.101562.148438 27.511719.351562 27.511719.199219 0 2.597657-6.578126 5.25-14.503907l4.898438-14.652343v20.632812c0 11.214844.148438 20.484375.351562 20.484375.199219 0 .898438-1.492187 1.546876-3.4375l1.203124-3.289063 7.449219 22.726563 7.398438 22.878906h14.800781l-15-44.859375h-7.101562c-3.949219 0-7.148438-.449218-7.148438-1.195312 0-.597656 3.148438-10.464844 7-21.980469l7-20.933594v-44.855469l-17 50.835938v-25.117188c0-13.757812-.148438-24.96875-.351562-24.820312-.25 0-2.699219 6.128906-5.5 13.457031zm0 0"/><path d="m69.148438 103.019531c-2.449219 2.839844-2.597657 3.441407-1 5.53125 1.101562 1.496094 1.101562 1.945313 1.25 32.449219.101562 30.203125.101562 30.949219-1 33.941406l-1.097657 3.140625 4-.152343c3.398438 0 3.75-.296876 2.699219-1.792969-1.699219-2.394531-2-3.886719-2-11.214844 0-4.035156.199219-6.28125.648438-6.28125.300781 0 1.800781 4.335937 3.300781 9.71875l2.699219 9.722656h2.703124c2.847657 0 3.25-1.945312.699219-3.441406-1.050781-.597656-2.300781-4.035156-4.300781-11.363281-1.550781-5.832032-2.699219-11.0625-2.550781-11.8125.601562-2.988282 5.699219-13.753906 6.449219-13.753906.5 0 .851562-.75.851562-1.496094 0-.898438-1.449219-1.496094-3.351562-1.496094-3.148438.148438-3.347657.300781-2.398438 2.390625.949219 2.246094.898438 2.542969-1.75 9.871094l-2.75 7.625-.148438-27.0625c-.050781-14.953125-.300781-27.066407-.5-27.066407-.203124.152344-1.300781 1.347657-2.453124 2.542969zm0 0"/><path d="m128.300781 108.105469c-.449219 4.335937-.699219 13.15625-.402343 13.15625.203124 0 .75-2.09375 1.203124-4.484375.796876-4.335938 1-4.488282 4.398438-4.488282h3.5v61.15625l-1.351562 2.242188c-1.347657 2.09375-1.148438 2.242188 3.101562 2.394531h4.5l-1.601562-2.992187-1.648438-2.992188v-59.808594h4c3.851562 0 4.050781.152344 4.5 3.738282.699219 5.535156 1 4.636718 1-2.988282v-6.730468h-10.5c-8 0-10.601562.449218-10.699219 1.796875zm0 0"/><path d="m211.351562 134.71875c-.953124 3.289062-2.351562 3.886719-3.25 1.195312-.300781-.894531-1.703124-1.792968-3.152343-1.792968-2.25-.148438-2.699219.449218-4 4.785156-1.800781 5.980469-2.050781 16.148438-.5 20.484375 1 2.542969 1 2.542969-.097657 6.878906-.902343 3.738281-1 5.082031-.5 8.820313.5 3.886718.449219 4.785156-.402343 5.980468-.648438 1.195313-.949219 3.140626-.949219 6.730469 0 4.183594.300781 5.53125 1.449219 7.324219 2.5 3.886719 5.351562 4.484375 7.800781 1.644531 5.351562-5.980469 5-21.679687-.5-21.679687-2.050781 0-5.601562-2.09375-6.101562-3.4375-.148438-.449219-.097657-2.246094.101562-3.890625.25-2.691407.75-3.136719 2.800781-3.136719 4.300781 0 6.449219-5.234375 6.449219-15.402344 0-3.140625.300781-5.53125.699219-5.980468.652343-.75 1.652343-9.570313 1.199219-10.765626-.097657-.449218-.597657.597657-1.046876 2.242188zm-4.851562 2.992188c1.5 2.390624 2.199219 12.257812 1.300781 18.390624-.75 5.53125-1.949219 7.324219-3.652343 5.382813-1.449219-1.644531-2.296876-6.578125-2.296876-13.609375 0-9.417969 2.199219-14.054688 4.648438-10.164062zm1.398438 44.257812c3.953124 2.390625 1.351562 14.054688-3.097657 14.054688-2.601562 0-4.25-2.394532-4.601562-6.730469-.5-5.828125.550781-8.222657 3.550781-8.222657 1.449219 0 3.300781.449219 4.148438.898438zm0 0"/><path d="m93.5 135.914062c-2.050781 3.441407-4 13.609376-4 21.082032 0 7.328125 1.398438 15.101562 3.5 19.289062 2.300781 4.636719 5.25 3.886719 7.851562-2.09375 1.898438-4.335937 1.5-7.027344-.453124-2.988281-2.699219 5.679687-6.75.296875-7.898438-10.46875-1-8.820313-.601562-9.71875 4.351562-9.566406 2.449219.148437 4.648438.148437 5 .148437.949219-.148437-.152343-8.074218-1.800781-12.710937-1.851562-5.382813-4.300781-6.277344-6.550781-2.691407zm4.550781 4.785157c.847657 2.394531 1.398438 5.085937 1.199219 5.980469-.148438.75-1.851562 1.496093-3.75 1.496093h-3.5l.550781-4.1875c1.097657-8.671875 3.25-10.015625 5.5-3.289062zm0 0"/><path d="m156.199219 135.617188c-2.050781 2.988281-3.097657 8.523437-2.199219 11.8125 1.101562 4.035156 2 2.691406 2-2.992188 0-4.1875.25-5.53125 1.101562-6.578125 2.449219-2.691406 4.597657 3.289063 4.296876 11.960937-.148438 4.636719-.296876 4.933594-2.796876 6.578126-3.101562 2.09375-5.101562 7.179687-5.101562 12.5625 0 4.78125.398438 6.578124 1.851562 8.96875 1.546876 2.394531 2.648438 2.09375 4.699219-1.195313 1.648438-2.691406 1.898438-2.691406 2.597657-.597656.902343 2.691406 3.152343 3.140625 4 .597656.402343-1.195313.300781-1.644531-.449219-1.644531-1.847657 0-2.199219-2.992188-2.199219-18.691406-.050781-16.148438-.398438-18.988282-2.699219-21.679688-1.851562-2.09375-3.25-1.792969-5.101562.898438zm5.300781 28.109374c0 8.074219-1 11.664063-3.148438 11.0625-3-.894531-3.152343-10.914062-.25-15.101562 2.796876-4.183594 3.398438-3.4375 3.398438 4.039062zm0 0"/><path d="m175.5 136.066406c-2 2.539063-2.101562 2.839844-1 3.289063 1.25.597656 1.25.746093 1.398438 16.894531.101562 13.605469 0 16.746094-.699219 18.988281-.847657 2.691407-.75 2.84375 2.800781 2.84375 3.699219 0 3.949219-.601562 1.898438-3.589843-1.046876-1.644532-1.148438-2.839844-1.296876-14.953126-.152343-11.960937-.050781-13.605468.949219-16.746093 1.597657-5.082031 4.5-4.933594 5.898438.300781.902343 3.4375 1.050781 6.128906 1.050781 17.492188 0 11.066406-.148438 13.757812-.851562 15.402343-.796876 1.792969-.398438 1.941407 2.75 2.09375 2.300781 0 3.550781-.601562 3.351562-1.496093-.148438-.898438-.699219-1.496094-1.25-1.496094-1.25 0-1.5-2.839844-1.5-16.597656 0-14.351563-.800781-20.035157-3.351562-23.324219-2-2.394531-3.648438-1.644531-5.75 2.691406l-1.398438 2.988281v-3.738281c0-4.484375-.050781-4.632813-3-1.042969zm0 0"/><path d="m224.351562 135.316406c-3.550781 3.886719-4.851562 9.867188-4.851562 22.726563 0 7.777343.148438 8.824219 1.898438 14.054687 4.550781 13.609375 12.300781 6.730469 13.351562-11.8125.5-9.269531-1.300781-19.285156-4.25-23.773437-2.550781-3.738281-3.5-3.886719-6.148438-1.195313zm4.949219 3.140625c1.648438 3.289063 2.699219 11.511719 2.699219 20.933594 0 7.324219-.199219 8.96875-1.449219 12.859375-1.851562 5.53125-3.949219 5.679688-6 .597656-3-7.625-3.449219-26.464844-.851562-33.195312 1.550781-4.035156 4.050781-4.484375 5.601562-1.195313zm0 0"/><path d="m108 135.617188c0 .449218.449219 1.941406.949219 3.289062 1.050781 2.839844 6.050781 37.378906 6.050781 42.015625 0 1.496094-.550781 5.234375-1.25 8.222656-.699219 3.140625-1.351562 6.28125-1.398438 7.175781-.152343 2.246094 1.5 2.691407 2.046876.75.25-1.046874 1.851562-13.90625 3.601562-28.710937 1.75-14.800781 3.601562-28.40625 4.148438-30.351563l1-3.289062h-2.796876c-2.800781 0-3.800781 1.945312-1.851562 3.4375.601562.449219 1 2.09375 1 4.039062 0 4.035157-2.5 25.417969-2.949219 25.417969-.550781 0-4.101562-26.914062-3.800781-28.558593.199219-.746094.648438-1.34375 1.050781-1.34375.398438 0 .699219-.75.699219-1.496094 0-.898438-1.398438-1.496094-3.25-1.496094-1.800781 0-3.25.449219-3.25.898438zm0 0"/><path d="m20.351562 156.847656-5.351562 16v16.148438c0 9.269531.199219 15.996094.449219 15.699218.25-.300781 2.75-6.128906 5.5-13.160156l5.050781-12.707031v-19.140625c0-10.464844-.050781-18.988281-.148438-18.988281-.050781 0-2.550781 7.175781-5.5 16.148437zm0 0"/></svg>

<svg xmlns="http://www.w3.org/2000/svg" xmlns:xlink="http://www.w3.org/1999/xlink" width="250px" height="250px" viewBox="0 0 250 250" version="1.1">
<g id="surface1">
<path style=" stroke:none;fill-rule:nonzero;fill:rgb(0%,0%,0%);fill-opacity:1;" d="M 20.148438 58.613281 L 15 72.070312 L 15 99.730469 C 15 114.832031 15.148438 127.242188 15.351562 127.242188 C 15.550781 127.242188 17.949219 120.664062 20.601562 112.738281 L 25.5 98.085938 L 25.5 118.71875 C 25.5 129.933594 25.648438 139.203125 25.851562 139.203125 C 26.050781 139.203125 26.75 137.710938 27.398438 135.765625 L 28.601562 132.476562 L 36.050781 155.203125 L 43.449219 178.082031 L 58.25 178.082031 L 43.25 133.222656 L 36.148438 133.222656 C 32.199219 133.222656 29 132.773438 29 132.027344 C 29 131.429688 32.148438 121.5625 36 110.046875 L 43 89.113281 L 43 44.257812 L 26 95.09375 L 26 69.976562 C 26 56.21875 25.851562 45.007812 25.648438 45.15625 C 25.398438 45.15625 22.949219 51.285156 20.148438 58.613281 Z M 20.148438 58.613281 "/>
<path style=" stroke:none;fill-rule:nonzero;fill:rgb(0%,0%,0%);fill-opacity:1;" d="M 69.148438 103.019531 C 66.699219 105.859375 66.550781 106.460938 68.148438 108.550781 C 69.25 110.046875 69.25 110.496094 69.398438 141 C 69.5 171.203125 69.5 171.949219 68.398438 174.941406 L 67.300781 178.082031 L 71.300781 177.929688 C 74.699219 177.929688 75.050781 177.632812 74 176.136719 C 72.300781 173.742188 72 172.25 72 164.921875 C 72 160.886719 72.199219 158.640625 72.648438 158.640625 C 72.949219 158.640625 74.449219 162.976562 75.949219 168.359375 L 78.648438 178.082031 L 81.351562 178.082031 C 84.199219 178.082031 84.601562 176.136719 82.050781 174.640625 C 81 174.042969 79.75 170.605469 77.75 163.277344 C 76.199219 157.445312 75.050781 152.214844 75.199219 151.464844 C 75.800781 148.476562 80.898438 137.710938 81.648438 137.710938 C 82.148438 137.710938 82.5 136.960938 82.5 136.214844 C 82.5 135.316406 81.050781 134.71875 79.148438 134.71875 C 76 134.867188 75.800781 135.019531 76.75 137.109375 C 77.699219 139.355469 77.648438 139.652344 75 146.980469 L 72.25 154.605469 L 72.101562 127.542969 C 72.050781 112.589844 71.800781 100.476562 71.601562 100.476562 C 71.398438 100.628906 70.300781 101.824219 69.148438 103.019531 Z M 69.148438 103.019531 "/>
<path style=" stroke:none;fill-rule:nonzero;fill:rgb(0%,0%,0%);fill-opacity:1;" d="M 128.300781 108.105469 C 127.851562 112.441406 127.601562 121.261719 127.898438 121.261719 C 128.101562 121.261719 128.648438 119.167969 129.101562 116.777344 C 129.898438 112.441406 130.101562 112.289062 133.5 112.289062 L 137 112.289062 L 137 173.445312 L 135.648438 175.6875 C 134.300781 177.78125 134.5 177.929688 138.75 178.082031 L 143.25 178.082031 L 141.648438 175.089844 L 140 172.097656 L 140 112.289062 L 144 112.289062 C 147.851562 112.289062 148.050781 112.441406 148.5 116.027344 C 149.199219 121.5625 149.5 120.664062 149.5 113.039062 L 149.5 106.308594 L 139 106.308594 C 131 106.308594 128.398438 106.757812 128.300781 108.105469 Z M 128.300781 108.105469 "/>
<path style=" stroke:none;fill-rule:nonzero;fill:rgb(0%,0%,0%);fill-opacity:1;" d="M 211.351562 134.71875 C 210.398438 138.007812 209 138.605469 208.101562 135.914062 C 207.800781 135.019531 206.398438 134.121094 204.949219 134.121094 C 202.699219 133.972656 202.25 134.570312 200.949219 138.90625 C 199.148438 144.886719 198.898438 155.054688 200.449219 159.390625 C 201.449219 161.933594 201.449219 161.933594 200.351562 166.269531 C 199.449219 170.007812 199.351562 171.351562 199.851562 175.089844 C 200.351562 178.976562 200.300781 179.875 199.449219 181.070312 C 198.800781 182.265625 198.5 184.210938 198.5 187.800781 C 198.5 191.984375 198.800781 193.332031 199.949219 195.125 C 202.449219 199.011719 205.300781 199.609375 207.75 196.769531 C 213.101562 190.789062 212.75 175.089844 207.25 175.089844 C 205.199219 175.089844 201.648438 172.996094 201.148438 171.652344 C 201 171.203125 201.050781 169.40625 201.25 167.761719 C 201.5 165.070312 202 164.625 204.050781 164.625 C 208.351562 164.625 210.5 159.390625 210.5 149.222656 C 210.5 146.082031 210.800781 143.691406 211.199219 143.242188 C 211.851562 142.492188 212.851562 133.671875 212.398438 132.476562 C 212.300781 132.027344 211.800781 133.074219 211.351562 134.71875 Z M 206.5 137.710938 C 208 140.101562 208.699219 149.96875 207.800781 156.101562 C 207.050781 161.632812 205.851562 163.425781 204.148438 161.484375 C 202.699219 159.839844 201.851562 154.90625 201.851562 147.875 C 201.851562 138.457031 204.050781 133.820312 206.5 137.710938 Z M 207.898438 181.96875 C 211.851562 184.359375 209.25 196.023438 204.800781 196.023438 C 202.199219 196.023438 200.550781 193.628906 200.199219 189.292969 C 199.699219 183.464844 200.75 181.070312 203.75 181.070312 C 205.199219 181.070312 207.050781 181.519531 207.898438 181.96875 Z M 207.898438 181.96875 "/>
<path style=" stroke:none;fill-rule:nonzero;fill:rgb(0%,0%,0%);fill-opacity:1;" d="M 93.5 135.914062 C 91.449219 139.355469 89.5 149.523438 89.5 156.996094 C 89.5 164.324219 90.898438 172.097656 93 176.285156 C 95.300781 180.921875 98.25 180.171875 100.851562 174.191406 C 102.75 169.855469 102.351562 167.164062 100.398438 171.203125 C 97.699219 176.882812 93.648438 171.5 92.5 160.734375 C 91.5 151.914062 91.898438 151.015625 96.851562 151.167969 C 99.300781 151.316406 101.5 151.316406 101.851562 151.316406 C 102.800781 151.167969 101.699219 143.242188 100.050781 138.605469 C 98.199219 133.222656 95.75 132.328125 93.5 135.914062 Z M 98.050781 140.699219 C 98.898438 143.09375 99.449219 145.785156 99.25 146.679688 C 99.101562 147.429688 97.398438 148.175781 95.5 148.175781 L 92 148.175781 L 92.550781 143.988281 C 93.648438 135.316406 95.800781 133.972656 98.050781 140.699219 Z M 98.050781 140.699219 "/>
<path style=" stroke:none;fill-rule:nonzero;fill:rgb(0%,0%,0%);fill-opacity:1;" d="M 156.199219 135.617188 C 154.148438 138.605469 153.101562 144.140625 154 147.429688 C 155.101562 151.464844 156 150.121094 156 144.4375 C 156 140.25 156.25 138.90625 157.101562 137.859375 C 159.550781 135.167969 161.699219 141.148438 161.398438 149.820312 C 161.25 154.457031 161.101562 154.753906 158.601562 156.398438 C 155.5 158.492188 153.5 163.578125 153.5 168.960938 C 153.5 173.742188 153.898438 175.539062 155.351562 177.929688 C 156.898438 180.324219 158 180.023438 160.050781 176.734375 C 161.699219 174.042969 161.949219 174.042969 162.648438 176.136719 C 163.550781 178.828125 165.800781 179.277344 166.648438 176.734375 C 167.050781 175.539062 166.949219 175.089844 166.199219 175.089844 C 164.351562 175.089844 164 172.097656 164 156.398438 C 163.949219 140.25 163.601562 137.410156 161.300781 134.71875 C 159.449219 132.625 158.050781 132.925781 156.199219 135.617188 Z M 161.5 163.726562 C 161.5 171.800781 160.5 175.390625 158.351562 174.789062 C 155.351562 173.894531 155.199219 163.875 158.101562 159.6875 C 160.898438 155.503906 161.5 156.25 161.5 163.726562 Z M 161.5 163.726562 "/>
<path style=" stroke:none;fill-rule:nonzero;fill:rgb(0%,0%,0%);fill-opacity:1;" d="M 175.5 136.066406 C 173.5 138.605469 173.398438 138.90625 174.5 139.355469 C 175.75 139.953125 175.75 140.101562 175.898438 156.25 C 176 169.855469 175.898438 172.996094 175.199219 175.238281 C 174.351562 177.929688 174.449219 178.082031 178 178.082031 C 181.699219 178.082031 181.949219 177.480469 179.898438 174.492188 C 178.851562 172.847656 178.75 171.652344 178.601562 159.539062 C 178.449219 147.578125 178.550781 145.933594 179.550781 142.792969 C 181.148438 137.710938 184.050781 137.859375 185.449219 143.09375 C 186.351562 146.53125 186.5 149.222656 186.5 160.585938 C 186.5 171.652344 186.351562 174.34375 185.648438 175.988281 C 184.851562 177.78125 185.25 177.929688 188.398438 178.082031 C 190.699219 178.082031 191.949219 177.480469 191.75 176.585938 C 191.601562 175.6875 191.050781 175.089844 190.5 175.089844 C 189.25 175.089844 189 172.25 189 158.492188 C 189 144.140625 188.199219 138.457031 185.648438 135.167969 C 183.648438 132.773438 182 133.523438 179.898438 137.859375 L 178.5 140.847656 L 178.5 137.109375 C 178.5 132.625 178.449219 132.476562 175.5 136.066406 Z M 175.5 136.066406 "/>
<path style=" stroke:none;fill-rule:nonzero;fill:rgb(0%,0%,0%);fill-opacity:1;" d="M 224.351562 135.316406 C 220.800781 139.203125 219.5 145.183594 219.5 158.042969 C 219.5 165.820312 219.648438 166.867188 221.398438 172.097656 C 225.949219 185.707031 233.699219 178.828125 234.75 160.285156 C 235.25 151.015625 233.449219 141 230.5 136.511719 C 227.949219 132.773438 227 132.625 224.351562 135.316406 Z M 229.300781 138.457031 C 230.949219 141.746094 232 149.96875 232 159.390625 C 232 166.714844 231.800781 168.359375 230.550781 172.25 C 228.699219 177.78125 226.601562 177.929688 224.550781 172.847656 C 221.550781 165.222656 221.101562 146.382812 223.699219 139.652344 C 225.25 135.617188 227.75 135.167969 229.300781 138.457031 Z M 229.300781 138.457031 "/>
<path style=" stroke:none;fill-rule:nonzero;fill:rgb(0%,0%,0%);fill-opacity:1;" d="M 108 135.617188 C 108 136.066406 108.449219 137.558594 108.949219 138.90625 C 110 141.746094 115 176.285156 115 180.921875 C 115 182.417969 114.449219 186.15625 113.75 189.144531 C 113.050781 192.285156 112.398438 195.425781 112.351562 196.320312 C 112.199219 198.566406 113.851562 199.011719 114.398438 197.070312 C 114.648438 196.023438 116.25 183.164062 118 168.359375 C 119.75 153.558594 121.601562 139.953125 122.148438 138.007812 L 123.148438 134.71875 L 120.351562 134.71875 C 117.550781 134.71875 116.550781 136.664062 118.5 138.15625 C 119.101562 138.605469 119.5 140.25 119.5 142.195312 C 119.5 146.230469 117 167.613281 116.550781 167.613281 C 116 167.613281 112.449219 140.699219 112.75 139.054688 C 112.949219 138.308594 113.398438 137.710938 113.800781 137.710938 C 114.199219 137.710938 114.5 136.960938 114.5 136.214844 C 114.5 135.316406 113.101562 134.71875 111.25 134.71875 C 109.449219 134.71875 108 135.167969 108 135.617188 Z M 108 135.617188 "/>
<path style=" stroke:none;fill-rule:nonzero;fill:rgb(0%,0%,0%);fill-opacity:1;" d="M 20.351562 156.847656 L 15 172.847656 L 15 188.996094 C 15 198.265625 15.199219 204.992188 15.449219 204.695312 C 15.699219 204.394531 18.199219 198.566406 20.949219 191.535156 L 26 178.828125 L 26 159.6875 C 26 149.222656 25.949219 140.699219 25.851562 140.699219 C 25.800781 140.699219 23.300781 147.875 20.351562 156.847656 Z M 20.351562 156.847656 "/>
</g>
</svg>
